src/wp-content/themes/aquaban/assets/images/paket2.svg

<svg width="53" height="54" viewBox="0 0 53 54" fill="none" xmlns="http://www.w3.org/2000/svg">
<path d="M21.6294 3.31183C24.0722 1.15373 27.3301 -0.0497051 30.5891 0.0015744C33.7881 0.0288507 36.9565 1.26501 39.3284 3.41002C42.1008 5.87144 43.7494 9.5341 43.7592 13.2415C43.7657 22.558 43.7592 31.8756 43.7625 41.1921C44.1476 41.2128 44.5895 41.1081 44.9222 41.3601C45.1743 41.5368 45.2943 41.8522 45.279 42.1544C45.2823 43.0774 45.2768 44.0004 45.2801 44.9235C45.6674 44.9409 46.0864 44.8547 46.4443 45.0489C48.454 46.0636 50.4615 47.0838 52.4701 48.1028C52.7844 48.2468 53.0113 48.572 52.9971 48.9255C53.0015 49.9412 53.0004 50.957 52.9971 51.9739C53.032 52.4714 52.5825 52.9253 52.0828 52.8871C46.5905 52.8903 41.0981 52.8871 35.6047 52.8892C35.0984 52.9438 34.6151 52.5019 34.6467 51.9902C34.6413 49.9489 34.6445 47.9075 34.6445 45.8651C34.6271 45.5334 34.794 45.1908 35.0929 45.0337C35.3646 44.8766 35.6898 44.93 35.9876 44.9333C36.0313 43.9721 35.9854 43.0098 36.0094 42.0486C36.004 41.6547 36.3073 41.2837 36.6946 41.2128C36.9892 41.1746 37.2881 41.1943 37.586 41.1921C37.5871 31.9498 37.586 22.7075 37.586 13.4641C37.5958 11.906 37.0918 10.3426 36.1404 9.10641C34.9849 7.55602 33.176 6.51079 31.2524 6.30022C29.4718 6.08856 27.6138 6.56971 26.1791 7.64985C24.8054 8.66126 23.7995 10.1702 23.434 11.8395C23.1787 12.9327 23.2769 14.0631 23.2649 15.1759C23.7766 15.1814 24.2883 15.1596 24.8 15.1836C25.2571 15.1978 25.627 15.632 25.603 16.0826C25.6084 23.421 25.6041 30.7605 25.6041 38.1C26.9101 39.0089 27.9727 40.269 28.6154 41.7278C29.4708 43.6317 29.6071 45.8476 28.9852 47.841C28.3786 49.8245 27.0388 51.5734 25.2735 52.6645C22.9888 54.108 20.0146 54.3982 17.503 53.39C17.3219 53.3224 17.1441 53.2231 16.9455 53.2297C11.6026 53.2297 6.25862 53.2329 0.916828 53.2286C0.411671 53.2646 -0.0378427 52.8041 0.0025262 52.3012C0.000344095 45.2453 0.00143515 38.1895 0.0025262 31.1348C-0.00183801 29.6946 0.237103 28.2522 0.729167 26.8982C1.70784 24.1749 3.69574 21.8324 6.21825 20.4141C7.52642 19.6754 8.97316 19.179 10.4603 18.9641C11.8164 18.7644 13.1901 18.8539 14.5539 18.832C14.5593 17.9134 14.5495 16.9947 14.5572 16.076C14.5353 15.6451 14.8779 15.2316 15.3078 15.1879C15.9024 15.1454 16.5003 15.2021 17.095 15.1596C17.084 13.8307 17.0349 12.4898 17.2652 11.174C17.7507 8.15283 19.3218 5.32264 21.6294 3.31183ZM22.3527 5.01823C20.5165 6.78792 19.3 9.18387 18.9476 11.7097C18.7774 12.8564 18.8461 14.0194 18.8319 15.1737C19.7255 15.1748 20.6201 15.1737 21.5137 15.1748C21.5334 13.9092 21.4308 12.624 21.7319 11.3823C22.3102 8.72999 24.1868 6.41042 26.6471 5.26918C28.7474 4.27414 31.2415 4.15957 33.4258 4.95059C35.2381 5.59322 36.8201 6.84902 37.873 8.45614C38.8254 9.89851 39.335 11.6235 39.3328 13.3506C39.3361 22.6311 39.3328 31.9116 39.3339 41.191C40.2285 41.1932 41.1221 41.1932 42.0157 41.191C42.0168 32.3131 42.0157 23.4363 42.0157 14.5584C42.0124 13.6834 42.0419 12.8051 41.9284 11.9355C41.5978 9.1435 40.2045 6.49552 38.0901 4.644C35.9865 2.77394 33.1814 1.72107 30.3665 1.74617C27.4065 1.74835 24.4694 2.94851 22.3527 5.01823ZM16.3018 16.9205C16.3018 17.5577 16.3007 18.1949 16.3018 18.8331C18.8199 18.8331 21.337 18.8342 23.8551 18.832C23.8562 18.1949 23.8562 17.5577 23.8551 16.9205C21.337 16.9194 18.8199 16.9194 16.3018 16.9205ZM11.1673 20.6356C9.29066 20.821 7.47296 21.5335 5.96404 22.6616C3.89867 24.188 2.44103 26.5011 1.94569 29.0214C3.38152 29.0312 4.81734 29.0127 6.25317 29.0301C7.23293 29.0498 8.07304 29.9499 8.04031 30.9275C8.0414 34.9251 8.04358 38.9216 8.04031 42.9192C8.06104 43.8902 7.21984 44.7751 6.24771 44.7936C4.74969 44.8078 3.25059 44.798 1.75148 44.798C1.74275 45.7145 1.7493 46.6321 1.74821 47.5485C5.24394 47.5507 8.74076 47.5485 12.2365 47.5496C11.5982 45.241 11.9681 42.677 13.2534 40.6531C14.4415 38.7427 16.3967 37.3243 18.5864 36.7995C20.3256 36.3696 22.1913 36.5093 23.8551 37.1683C23.8562 31.6388 23.8562 26.1083 23.8551 20.5788C20.2437 20.5788 16.6323 20.5788 13.021 20.5788C12.4023 20.5788 11.7826 20.5712 11.1673 20.6356ZM1.75803 30.7703C1.73294 34.864 1.75367 38.9598 1.74821 43.0534C3.25714 43.0512 4.76606 43.0632 6.2739 43.0469C6.31972 42.425 6.2859 41.7998 6.29572 41.1757C6.2859 37.7116 6.31536 34.2475 6.28153 30.7834C4.7737 30.7507 3.26586 30.7769 1.75803 30.7703ZM19.6938 38.3652C18.0125 38.5932 16.4261 39.4606 15.334 40.7589C14.2331 42.0442 13.633 43.7451 13.6778 45.4374C13.7127 47.0161 14.304 48.5774 15.3318 49.7787C16.3279 50.957 17.7267 51.7895 19.24 52.0961C20.8689 52.4376 22.6179 52.1659 24.0646 51.3443C25.3444 50.6297 26.3831 49.4961 26.9886 48.1617C27.6891 46.6342 27.8124 44.8493 27.3159 43.2433C26.7322 41.3034 25.2549 39.6591 23.3936 38.8627C22.236 38.363 20.942 38.1917 19.6938 38.3652ZM37.7508 42.9389C37.7497 43.6 37.7497 44.2612 37.7508 44.9235C39.6743 44.93 41.5989 44.9137 43.5224 44.9311C43.5475 44.2677 43.5268 43.6033 43.5344 42.9389C41.6065 42.9367 39.6786 42.9378 37.7508 42.9389ZM36.3902 46.6692C36.388 48.1595 36.3913 49.6499 36.3891 51.1403C41.3436 51.1457 46.2981 51.1425 51.2525 51.1425C51.2547 50.5762 51.2536 50.0111 51.2536 49.4459C49.4916 48.5436 47.7208 47.6566 45.9587 46.7553C45.7285 46.6222 45.4536 46.6779 45.2026 46.6681C42.2655 46.6713 39.3273 46.6681 36.3902 46.6692ZM1.74275 49.3041C1.75257 50.0307 1.74494 50.7573 1.74821 51.484C6.01095 51.4851 10.2748 51.4851 14.5386 51.484C13.9069 50.8381 13.3461 50.1169 12.938 49.3084C9.20665 49.2833 5.47415 49.2931 1.74275 49.3041Z" fill="#00AFEA"/>
<path d="M15.4278 24.6856C16.0388 24.6845 16.6509 24.6834 17.2619 24.6856C17.2619 25.2977 17.2641 25.9086 17.2608 26.5207C16.6498 26.5196 16.0399 26.5185 15.43 26.5218C15.4245 25.9097 15.4278 25.2977 15.4278 24.6856Z" fill="#00AFEA"/>
<path d="M19.0982 24.6856C19.7124 24.6922 20.3267 24.666 20.9399 24.6998C20.9257 25.3064 20.9366 25.9131 20.9322 26.5186C20.3169 26.5088 19.7004 26.5448 19.0862 26.5C19.1102 25.8956 19.0916 25.2901 19.0982 24.6856Z" fill="#00AFEA"/>
<path d="M20.258 40.6815C21.3992 40.5876 22.5743 40.928 23.4744 41.6405C24.4771 42.4151 25.1328 43.6197 25.2332 44.8831C25.3652 46.2786 24.8022 47.7122 23.769 48.656C22.8503 49.5113 21.5694 49.9598 20.318 49.8638C18.952 49.7754 17.6493 49.0335 16.8714 47.9075C16.0018 46.6812 15.7967 45.0173 16.3498 43.6175C16.951 41.9995 18.5352 40.8091 20.258 40.6815ZM20.1609 42.4555C19.2051 42.6126 18.3618 43.2934 18.0017 44.1914C17.6166 45.1166 17.7671 46.2447 18.3967 47.0281C19.036 47.8639 20.1642 48.2905 21.1952 48.0755C22.2164 47.8879 23.0893 47.0936 23.3828 46.1007C23.6905 45.1275 23.4101 44.0059 22.6965 43.2803C22.0539 42.6104 21.0741 42.2908 20.1609 42.4555Z" fill="#00AFEA"/>
</svg>

<svg width="53" height="54" fill="none" xmlns="http://www.w3.org/2000/svg"><path d="M21.63 3.312a13.353 13.353 0 018.96-3.31 13.327 13.327 0 018.738 3.408c2.773 2.461 4.421 6.124 4.431 9.832.007 9.316 0 18.634.004 27.95.385.02.827-.084 1.16.168.251.177.371.492.356.794.003.923-.002 1.846.001 2.77.387.017.806-.07 1.164.125 2.01 1.015 4.017 2.035 6.026 3.054.314.144.541.469.527.822.005 1.016.003 2.032 0 3.049.035.497-.414.951-.914.913-5.492.003-10.985 0-16.478.002-.507.055-.99-.387-.958-.899-.006-2.041-.002-4.083-.002-6.125-.018-.332.149-.674.448-.831.272-.157.597-.104.895-.1.043-.962-.003-1.924.021-2.885a.861.861 0 01.686-.836c.294-.038.593-.019.891-.02v-27.73c.01-1.558-.494-3.121-1.446-4.358A7.146 7.146 0 0031.252 6.3c-1.78-.211-3.638.27-5.073 1.35-1.374 1.011-2.38 2.52-2.745 4.19-.255 1.093-.157 2.223-.17 3.336.513.005 1.024-.016 1.536.008.457.014.827.448.803.899.005 7.338.001 14.678.001 22.017a8.761 8.761 0 013.011 3.628 8.725 8.725 0 01.37 6.113 8.717 8.717 0 01-3.712 4.823c-2.284 1.444-5.258 1.734-7.77.726-.181-.068-.359-.167-.558-.16-5.342 0-10.686.003-16.028-.001-.505.036-.955-.425-.914-.928C0 45.245 0 38.19.003 31.135c-.005-1.44.234-2.883.726-4.237a12.28 12.28 0 015.49-6.484 12.206 12.206 0 014.241-1.45c1.356-.2 2.73-.11 4.094-.132.005-.919-.005-1.837.003-2.756-.022-.43.32-.844.75-.888.595-.043 1.193.014 1.788-.028-.011-1.33-.06-2.67.17-3.986a13.327 13.327 0 014.364-7.862zm.723 1.706a11.595 11.595 0 00-3.405 6.692c-.17 1.146-.102 2.31-.116 3.464h2.682c.02-1.265-.083-2.55.218-3.792.578-2.652 2.455-4.972 4.915-6.113a8.92 8.92 0 016.779-.318 8.916 8.916 0 015.907 8.4c.003 9.28 0 18.56 0 27.84.895.002 1.79.002 2.683 0V14.558c-.004-.875.026-1.753-.088-2.623a11.586 11.586 0 00-19.576-6.917zm-6.051 11.903v1.912c2.518 0 5.035.001 7.553-.001V16.92h-7.553zm-5.135 3.715a10.46 10.46 0 00-5.203 2.026 10.5 10.5 0 00-4.018 6.36c1.436.01 2.871-.01 4.307.008.98.02 1.82.92 1.787 1.897.001 3.998.004 7.995 0 11.992.021.971-.82 1.856-1.792 1.875-1.498.014-2.997.004-4.497.004-.008.916-.002 1.834-.003 2.75 3.496.003 6.993 0 10.488.002-.638-2.309-.268-4.873 1.017-6.897a8.76 8.76 0 015.333-3.853 8.724 8.724 0 015.27.368v-16.59H13.02c-.619 0-1.238-.007-1.854.058zM1.758 30.77c-.025 4.094-.004 8.19-.01 12.283 1.51-.002 3.018.01 4.526-.006.046-.622.012-1.247.022-1.871-.01-3.464.02-6.928-.014-10.393-1.508-.032-3.016-.006-4.524-.013zm17.936 7.595a6.978 6.978 0 00-6.016 7.072 6.972 6.972 0 0013.31 2.725 6.979 6.979 0 00.328-4.919 7.043 7.043 0 00-3.922-4.38 6.966 6.966 0 00-3.7-.498zM37.75 42.94v1.984c1.923.007 3.848-.01 5.771.008.026-.663.005-1.328.012-1.992-1.928-.002-3.855-.001-5.783 0zm-1.36 3.73c-.003 1.49 0 2.98-.002 4.471 4.955.006 9.91.002 14.863.002.003-.566.002-1.13.002-1.696-1.762-.902-3.533-1.79-5.295-2.69-.23-.134-.505-.078-.756-.088-2.938.003-5.876 0-8.813.001zM1.742 49.304c.01.727.002 1.453.005 2.18h12.79c-.631-.646-1.192-1.367-1.6-2.176-3.731-.025-7.464-.015-11.195-.004z" fill="#00AFEA"/><path d="M15.428 24.686a339.79 339.79 0 011.834 0c0 .612.002 1.223-.001 1.835-.611-.001-1.221-.003-1.831 0-.005-.611-.002-1.223-.002-1.835zm3.67 0c.614.006 1.229-.02 1.842.014-.014.606-.003 1.213-.008 1.819-.615-.01-1.232.026-1.846-.019.024-.604.006-1.21.012-1.814zm1.16 15.995a4.613 4.613 0 014.975 4.202 4.603 4.603 0 01-8.362 3.025 4.612 4.612 0 01-.521-4.29c.601-1.619 2.185-2.809 3.908-2.937zm-.097 1.775A2.87 2.87 0 0018 44.19c-.384.926-.234 2.054.396 2.837.639.836 1.767 1.263 2.798 1.047a2.87 2.87 0 002.188-1.974c.308-.974.027-2.095-.686-2.82a2.866 2.866 0 00-2.536-.825z" fill="#00AFEA"/></svg>
